X: 8735
T: Cry Of The Mountain, The
R: reel
M: 4/4
K: Dmixolydian
FGAG FDDA|FDAF GBAG|FGAG FDDG|BdcA ~G3z:|
A2~A2 cA~A2|~A3B cAGB|A2~A2 cAGB|AdcA ~G3z|
A2~A2 cA~A2|~A3B c/B/ABc|d2cA BG~G2|Ad^ce d=cAG|

